icons/heart-rate-outline.svg

<svg xmlns="http://www.w3.org/2000/svg" width="24" height="24" viewBox="0 0 24 24">
    <path fill="#3A3A47" fill-rule="evenodd" d="M16.5 3C19.58 3 22 5.627 22 8.995c0 4.815-3.803 7.997-9.003 11.63 0 0-.559.37-.997.37-.438 0-.996-.37-.996-.37C5.77 16.992 2 13.81 2 8.995 2 5.627 4.42 3 7.5 3c1.74 0 3.41.883 4.5 2.267C13.09 3.883 14.76 3 16.5 3zm-4.283 9.034l-1.47 3.29c-.136.353-.371.57-.707.654-.293.073-.572.009-.837-.193l-.113-.095-2.479-2.243h-.998C7.423 16.079 10 17.477 12 18.992c1.808-1.424 4.263-2.772 6.108-5.164l.286-.387-1.034.006-1.986 1.363c-.238.156-.481.22-.732.19a.897.897 0 0 1-.55-.285L14 14.608l-1.783-2.574zM16.502 5c-2.231 0-3.41 1.616-4.5 3-1.09-1.384-2.345-3-4.5-3-2.032 0-3.5 2.001-3.5 3.995 0 .73.218 1.567.589 2.457h2.406c.192.012.34.043.444.093.104.051.27.175.495.371l1.516 1.408 1.67-3.783c.195-.364.488-.546.88-.546s.693.182.904.546l2.183 3.047 1.08-.762c.232-.156.429-.257.59-.304.162-.046.402-.07.721-.07h1.944c.385-.799.578-1.618.578-2.457C20.002 7 18.602 5 16.502 5z"/>
</svg>

<svg width="24" height="24" viewBox="0 0 24 24" fill="none" xmlns="http://www.w3.org/2000/svg">
<path fill-rule="evenodd" clip-rule="evenodd" d="M12 20.994C11.562 20.994 11.004 20.625 11.004 20.625C5.77 16.992 2 13.81 2 8.995C2 5.627 4.42 3 7.5 3C9.24 3 10.91 3.883 12 5.267C13.09 3.883 14.76 3 16.5 3C19.58 3 22 5.627 22 8.995C22 13.81 18.197 16.992 12.997 20.625C12.997 20.625 12.438 20.995 12 20.995V20.994ZM12 18.992C13.904 17.493 16.524 16.079 18.394 13.442L17.36 13.447L15.374 14.81C15.136 14.966 14.893 15.03 14.642 15C14.392 14.97 14.178 14.84 14 14.608L12.217 12.034L10.747 15.324C10.611 15.677 10.376 15.894 10.04 15.978C9.705 16.062 9.388 15.966 9.09 15.69L6.611 13.447H5.613C7.423 16.079 10 17.477 12 18.992ZM19.424 11.452C19.809 10.653 20.002 9.834 20.002 8.995C20.002 7 18.602 5 16.502 5C14.271 5 13.092 6.616 12.002 8C10.912 6.616 9.657 5 7.502 5C5.47 5 4.002 7.001 4.002 8.995C4.002 9.725 4.22 10.562 4.591 11.452H6.997C7.189 11.464 7.337 11.495 7.441 11.545C7.545 11.596 7.711 11.72 7.936 11.916L9.452 13.324L11.122 9.541C11.317 9.177 11.61 8.995 12.002 8.995C12.394 8.995 12.695 9.177 12.906 9.541L15.089 12.588L16.169 11.826C16.401 11.67 16.598 11.569 16.759 11.522C16.921 11.476 17.161 11.452 17.48 11.452H19.424Z" fill="#3A3A47"/>
</svg>
